web/themes/custom/uswds_wioa/images/close.svg

<?xml version="1.0" encoding="UTF-8"?>
<svg width="15px" height="15px" viewBox="0 0 15 15" version="1.1" xmlns="http://www.w3.org/2000/svg" xmlns:xlink="http://www.w3.org/1999/xlink">
    <!-- Generator: Sketch 43.2 (39069) - http://www.bohemiancoding.com/sketch -->
    <title>Fill 15 Copy</title>
    <desc>Created with Sketch.</desc>
    <defs></defs>
    <g id="Symbols" stroke="none" stroke-width="1" fill="none" fill-rule="evenodd">
        <g id="UI-element-/-Icons-/-Close" fill="#5B616B">
            <path d="M14.6467778,11.2126037 C14.8818403,11.4476661 15,11.7342663 15,12.0711472 C15,12.4080282 14.8818403,12.6946283 14.6467778,12.9296908 L12.9296908,14.6467778 C12.6933713,14.8830973 12.4067711,15.001257 12.0698902,15.001257 C11.7342663,15.001257 11.4476661,14.8830973 11.2126037,14.6467778 L7.49937149,10.9348026 L3.7873963,14.6467778 C3.55233386,14.8830973 3.26573368,15.001257 2.92885276,15.001257 C2.59197184,15.001257 2.30662868,14.8830973 2.07030923,14.6467778 L0.353222157,12.9296908 C0.116902707,12.6946283 0,12.4080282 0,12.0711472 C0,11.7342663 0.116902707,11.4476661 0.353222157,11.2126037 L4.06519735,7.50062851 L0.353222157,3.78865331 C0.116902707,3.55233386 0,3.2669907 0,2.92885276 C0,2.59322886 0.116902707,2.30662868 0.353222157,2.07156624 L2.07030923,0.353222157 C2.30662868,0.118159725 2.59197184,0 2.92885276,0 C3.26573368,0 3.55233386,0.118159725 3.7873963,0.353222157 L7.49937149,4.06519735 L11.2126037,0.353222157 C11.4476661,0.118159725 11.7342663,0 12.0698902,0 C12.4067711,0 12.6933713,0.118159725 12.9296908,0.353222157 L14.6467778,2.07156624 C14.8818403,2.30662868 15,2.59322886 15,2.92885276 C15,3.2669907 14.8818403,3.55233386 14.6467778,3.78865331 L10.9348026,7.50062851 L14.6467778,11.2126037 Z" id="Fill-15-Copy"></path>
        </g>
    </g>
</svg>

<svg width="15" height="15" xmlns="http://www.w3.org/2000/svg"><path d="M14.647 11.213c.235.235.353.521.353.858 0 .337-.118.624-.353.859l-1.717 1.717a1.17 1.17 0 0 1-.86.354c-.336 0-.622-.118-.857-.354l-3.714-3.712-3.712 3.712A1.166 1.166 0 0 1 2.93 15a1.17 1.17 0 0 1-.859-.354L.353 12.93A1.165 1.165 0 0 1 0 12.07c0-.337.117-.623.353-.858L4.065 7.5.353 3.789A1.168 1.168 0 0 1 0 2.929c0-.336.117-.622.353-.857L2.07.353C2.307.118 2.592 0 2.93 0c.337 0 .623.118.858.353L7.5 4.065 11.213.353c.235-.235.521-.353.857-.353.337 0 .623.118.86.353l1.717 1.719c.235.235.353.521.353.857 0 .338-.118.623-.353.86L10.935 7.5l3.712 3.712z" fill="#5B616B" fill-rule="evenodd"/></svg>
